X: 23553
T: Light And Airy
R: jig
M: 6/8
K: Gmajor
|:d3 dBd|G2 B c2 e|d3 dcB|A2 B c2 e|
d3 dBd|G2 B c2 e|gfe d>cB|A2 B c2 e:|
|:gbg dBd|gbg dBd|gbg d>cB|A2 B c2 e|
gbg a2 c'|bag fed|g>fe dcB|A2 B c2 e:|

